X: 2411
T: WALK AROUND__ HEY DADDY.
P: Plantation Dance.
R:
B: James Kerr "Merry Melodies" v.2 p.46 #411
Z: 2016 John Chambers <jc:trillian.mit.edu>
M: 2/4
L: 1/16
K: Am	% and C
"^>"[a4A4] "^>"[a4A4] | "^>"[a4A4] "^>"[a2A2] \
!segno!|: e2 |\
a2e2 a4- | abag e4 |\
a2e2 abag | e2 g4 g2 |\
a2e2 a4 |  ABcd e3d |\
c4 B4 | A6 :|\
G2 |\
c2c2B2d2 | c6 G2 |\
c2c2B2d2 | c6 G2 |\
c6 d2 | e2c2 G2E2 |]\
D6 FE | D4 z2D2 |
d2d2^c2e2 | d6 A2 |\
d2d2^c2e2 | d6 A2 |\
d6 e2 | f2d2B2G2 |\
^F2G2A2B2 | c4 z2 |:\
G2 |"^DANCE."\
cBcd edcB | A^GAB cBcG |\
cBcd edcB | AcBd c2 :|\
"^Break."G2GG G2G2 | A2B2 "_D.S."c2 |]
